X: 1621
T: Coming From The Wedding
R:hornpipe
N:"Collected by F. Cronin"
B:O'Neill's 1621
Z:Transcribed by Michael Hogan
M:C|
L:1/8
K:A
(3EFG | A2 (ce) agfe | dcBA GBEc | B2 GB EBGB | AABc dcdc |
A2 (ce) agfe | dcBA GBEB | Aceg agaf | edcB A2 :|
|: (cd) | e2 (ce) Aece | f2 (df) Bfdf | e2 (ce) Aece | dcBA GABc |
e2 (ce) Aece | dcde fgaf | eagf edcB | AdcB A2 :||


